vsi/git-merge_dark.svg

<svg viewBox="0 0 16 16" fill="none" xmlns="http://www.w3.org/2000/svg" height="1em" width="1em">
  <path d="M13.2729 7.73055C12.8025 7.26291 12.1661 7.00048 11.5028 7.00057C11.0087 7.00024 10.5256 7.14639 10.1144 7.42049C9.70327 7.69458 9.38259 8.08436 9.19284 8.54061C9.1345 8.68241 9.09093 8.8298 9.06284 8.98055C8.0405 8.86836 7.08702 8.41091 6.35977 7.68367C5.63253 6.95643 5.17502 6.00289 5.06284 4.98055C5.21358 4.95246 5.36103 4.90889 5.50284 4.85054C5.95909 4.6608 6.34886 4.34017 6.62296 3.92903C6.89705 3.51789 7.04315 3.03474 7.04282 2.54061C7.05019 2.19765 6.98546 1.85696 6.85282 1.54061C6.72814 1.23755 6.54468 0.962142 6.31296 0.730425C6.08124 0.498708 5.8059 0.31518 5.50284 0.190508C5.18648 0.0578651 4.8458 -0.00680644 4.50284 0.00056644C4.00871 0.000236947 3.52555 0.146394 3.11441 0.420488C2.70327 0.694583 2.38259 1.08436 2.19284 1.54061C2.00484 1.9984 1.95582 2.50141 2.05185 2.98689C2.14788 3.47238 2.38469 3.91884 2.73282 4.27059C3.08333 4.61279 3.52372 4.84851 4.00284 4.95052V10.0506C3.68429 10.1128 3.38155 10.2386 3.11283 10.4206C2.70505 10.6979 2.3857 11.0867 2.19284 11.5406C2.00197 11.998 1.95136 12.5017 2.0474 12.9879C2.14343 13.4741 2.38178 13.9208 2.73221 14.2712C3.08264 14.6216 3.52934 14.86 4.01554 14.956C4.50173 15.052 5.00551 15.0015 5.46286 14.8106C5.91911 14.6209 6.30889 14.3001 6.58298 13.889C6.85707 13.4779 7.00317 12.9947 7.00284 12.5006C7.01021 12.1576 6.94548 11.8169 6.81284 11.5006C6.68817 11.1975 6.5047 10.9222 6.27298 10.6905C6.04127 10.4588 5.76592 10.2753 5.46286 10.1506C5.31451 10.0889 5.16041 10.042 5.00284 10.0106V7.61055C5.51949 8.34075 6.20585 8.93443 7.00284 9.34053C7.65409 9.67397 8.36392 9.87772 9.09287 9.94051C9.16518 10.3031 9.31699 10.6452 9.53739 10.942C9.75778 11.2388 10.0413 11.483 10.3674 11.6571C10.6935 11.8311 11.0542 11.9307 11.4235 11.9486C11.7928 11.9665 12.1614 11.9023 12.5028 11.7606C12.9591 11.5708 13.3489 11.2501 13.623 10.8389C13.8971 10.4278 14.0431 9.94465 14.0428 9.45052C14.0193 8.79894 13.7432 8.18211 13.2729 7.73055V7.73055ZM5.07285 11.1106C5.3489 11.2275 5.5851 11.4221 5.75284 11.6706C5.94506 11.9591 6.03138 12.3052 5.99716 12.6502C5.96295 12.9952 5.8103 13.3178 5.56516 13.5629C5.32001 13.8081 4.99755 13.9607 4.65256 13.995C4.30757 14.0292 3.96134 13.9428 3.67282 13.7506C3.42432 13.5828 3.2298 13.3466 3.11283 13.0705C3.00184 12.798 2.97404 12.4988 3.03287 12.2105C3.08933 11.9185 3.23188 11.6502 3.44217 11.4399C3.65246 11.2296 3.92087 11.0871 4.21286 11.0306C4.50114 10.9718 4.80037 10.9996 5.07285 11.1106V11.1106ZM4.50284 4.00057C4.2076 4.00073 3.91886 3.91377 3.67282 3.75057C3.42432 3.58283 3.2298 3.34657 3.11283 3.07051C3.00184 2.79803 2.97404 2.49881 3.03287 2.21053C3.08933 1.91854 3.23188 1.65019 3.44217 1.4399C3.65246 1.22961 3.92087 1.08706 4.21286 1.0306C4.50114 0.971769 4.80037 0.999561 5.07285 1.11055C5.3489 1.22752 5.5851 1.42211 5.75284 1.67061C5.90298 1.89662 5.989 2.15909 6.00174 2.43013C6.01448 2.70117 5.9535 2.97057 5.82523 3.20967C5.69695 3.44878 5.50622 3.64865 5.27335 3.78792C5.04048 3.92719 4.77418 4.00067 4.50284 4.00057V4.00057ZM12.5628 10.5606C12.3181 10.8055 11.9963 10.9582 11.6518 10.9929C11.3073 11.0275 10.9614 10.9419 10.6728 10.7506C10.4243 10.5828 10.2298 10.3466 10.1128 10.0705C10.0018 9.79803 9.97404 9.49881 10.0329 9.21053C10.0893 8.91854 10.2319 8.65019 10.4422 8.4399C10.6525 8.22961 10.9209 8.08706 11.2129 8.0306C11.5011 7.97177 11.8004 7.99956 12.0728 8.11055C12.3489 8.22752 12.5851 8.42211 12.7528 8.67061C12.9442 8.95917 13.0298 9.30501 12.9951 9.64949C12.9605 9.99398 12.8078 10.3159 12.5628 10.5606V10.5606Z" fill="#C5C5C5"/>
</svg>

<svg viewBox="0 0 16 16" fill="none" xmlns="http://www.w3.org/2000/svg" height="1em" width="1em">
  <path d="M13.273 7.73a2.51 2.51 0 0 0-3.159-.31 2.5 2.5 0 0 0-.921 1.12 2.23 2.23 0 0 0-.13.44 4.52 4.52 0 0 1-4-4 2.23 2.23 0 0 0 .44-.13 2.5 2.5 0 0 0 1.54-2.31 2.45 2.45 0 0 0-.19-1A2.48 2.48 0 0 0 5.503.19a2.45 2.45 0 0 0-1-.19 2.5 2.5 0 0 0-2.31 1.54 2.52 2.52 0 0 0 .54 2.73c.35.343.79.579 1.27.68v5.1a2.411 2.411 0 0 0-.89.37 2.5 2.5 0 1 0 3.47 3.468 2.5 2.5 0 0 0 .42-1.387 2.45 2.45 0 0 0-.19-1 2.48 2.48 0 0 0-1.81-1.49v-2.4a5.52 5.52 0 0 0 2 1.73 5.65 5.65 0 0 0 2.09.6 2.5 2.5 0 0 0 4.95-.49 2.51 2.51 0 0 0-.77-1.72Zm-8.2 3.38c.276.117.512.312.68.56a1.5 1.5 0 0 1-2.08 2.08 1.55 1.55 0 0 1-.56-.68 1.49 1.49 0 0 1-.08-.86 1.49 1.49 0 0 1 1.18-1.18 1.49 1.49 0 0 1 .86.08ZM4.503 4a1.5 1.5 0 0 1-1.39-.93 1.49 1.49 0 0 1-.08-.86 1.49 1.49 0 0 1 1.18-1.18 1.49 1.49 0 0 1 .86.08A1.5 1.5 0 0 1 4.503 4Zm8.06 6.56a1.5 1.5 0 0 1-2.45-.49 1.49 1.49 0 0 1-.08-.86 1.49 1.49 0 0 1 1.18-1.18 1.49 1.49 0 0 1 .86.08 1.499 1.499 0 0 1 .49 2.45Z" fill="#C5C5C5"/>
</svg>
